astaworks/images/logo-f.svg

<?xml version="1.0" encoding="UTF-8"?>
<svg width="1474px" height="313px" viewBox="0 0 1474 313" version="1.1" xmlns="http://www.w3.org/2000/svg" xmlns:xlink="http://www.w3.org/1999/xlink">
    <!-- Generator: Sketch 47.1 (45422) - http://www.bohemiancoding.com/sketch -->
    <title>logo-f</title>
    <desc>Created with Sketch.</desc>
    <defs>
        <polygon id="path-1" points="219 0 0 0 1.19461774e-14 313 219 313 219 3.48836286e-14"></polygon>
        <polygon id="path-3" points="0 313 229.756871 313 229.756871 0.20203125 0 0.20203125"></polygon>
    </defs>
    <g id="Symbols" stroke="none" stroke-width="1" fill="none" fill-rule="evenodd">
        <g id="logo-f">
            <g id="logo" transform="translate(207.000000, 140.000000)">
                <g id="Page-1">
                    <g id="Group-3" transform="translate(0.000000, 0.122558)"></g>
                </g>
            </g>
            <path d="M437.942871,120.091797 L437.942871,234.310547 L423.455566,234.310547 L423.455566,214.679199 C417.296681,222.167843 410.385536,227.801739 402.721924,231.581055 C395.058311,235.36037 386.677454,237.25 377.579102,237.25 C361.412029,237.25 347.607235,231.388649 336.164307,219.665771 C324.721378,207.942894 319,193.683189 319,176.88623 C319,160.439208 324.773868,146.371966 336.321777,134.684082 C347.869687,122.996198 361.761963,117.152344 377.999023,117.152344 C387.377326,117.152344 395.863162,119.146953 403.456787,123.13623 C411.050412,127.125508 417.716605,133.109335 423.455566,141.087891 L423.455566,120.091797 L437.942871,120.091797 Z M379.153809,131.324707 C370.965291,131.324707 363.406773,133.336813 356.478027,137.361084 C349.549282,141.385355 344.037862,147.036747 339.943604,154.31543 C335.849345,161.594112 333.802246,169.292603 333.802246,177.411133 C333.802246,185.459676 335.866841,193.158166 339.996094,200.506836 C344.125346,207.855505 349.671759,213.576884 356.635498,217.671143 C363.599237,221.765401 371.070273,223.8125 379.048828,223.8125 C387.097371,223.8125 394.725875,221.782898 401.93457,217.723633 C409.143265,213.664368 414.689678,208.170445 418.573975,201.241699 C422.458271,194.312954 424.400391,186.509483 424.400391,177.831055 C424.400391,164.603449 420.043745,153.545617 411.330322,144.657227 C402.6169,135.768836 391.891502,131.324707 379.153809,131.324707 Z M538.436035,132.584473 L528.987793,142.347656 C521.149212,134.719037 513.485715,130.904785 505.99707,130.904785 C501.237932,130.904785 497.161231,132.479476 493.766846,135.628906 C490.37246,138.778336 488.675293,142.452616 488.675293,146.651855 C488.675293,150.361184 490.075019,153.895491 492.874512,157.254883 C495.674005,160.684262 501.552852,164.708473 510.51123,169.327637 C521.429254,174.99661 528.847799,180.45554 532.76709,185.70459 C536.616393,191.023627 538.541016,197.007454 538.541016,203.65625 C538.541016,213.034552 535.25166,220.977995 528.672852,227.486816 C522.094043,233.995638 513.870655,237.25 504.002441,237.25 C497.423632,237.25 491.142364,235.815281 485.158447,232.945801 C479.174531,230.07632 474.223001,226.122096 470.303711,221.083008 L479.541992,210.584961 C487.030636,219.053428 494.974079,223.287598 503.372559,223.287598 C509.251494,223.287598 514.255513,221.397968 518.384766,217.618652 C522.514018,213.839337 524.578613,209.395208 524.578613,204.286133 C524.578613,200.086893 523.213881,196.342627 520.484375,193.053223 C517.754869,189.833806 511.596077,185.774601 502.007812,180.875488 C491.719675,175.556451 484.721047,170.30748 481.011719,165.128418 C477.30239,159.949356 475.447754,154.035515 475.447754,147.386719 C475.447754,138.70829 478.404674,131.499703 484.318604,125.760742 C490.232533,120.021781 497.703568,117.152344 506.731934,117.152344 C517.230033,117.152344 527.797961,122.296335 538.436035,132.584473 Z M587.278809,77.6796875 L602.081055,77.6796875 L602.081055,120.091797 L625.386719,120.091797 L625.386719,132.689453 L602.081055,132.689453 L602.081055,234.310547 L587.278809,234.310547 L587.278809,132.689453 L567.227539,132.689453 L567.227539,120.091797 L587.278809,120.091797 L587.278809,77.6796875 Z M771.126465,120.091797 L771.126465,234.310547 L756.63916,234.310547 L756.63916,214.679199 C750.480275,222.167843 743.56913,227.801739 735.905518,231.581055 C728.241905,235.36037 719.861048,237.25 710.762695,237.25 C694.595622,237.25 680.790829,231.388649 669.3479,219.665771 C657.904972,207.942894 652.183594,193.683189 652.183594,176.88623 C652.183594,160.439208 657.957462,146.371966 669.505371,134.684082 C681.05328,122.996198 694.945557,117.152344 711.182617,117.152344 C720.560919,117.152344 729.046756,119.146953 736.640381,123.13623 C744.234006,127.125508 750.900199,133.109335 756.63916,141.087891 L756.63916,120.091797 L771.126465,120.091797 Z M712.337402,131.324707 C704.148885,131.324707 696.590367,133.336813 689.661621,137.361084 C682.732876,141.385355 677.221456,147.036747 673.127197,154.31543 C669.032939,161.594112 666.98584,169.292603 666.98584,177.411133 C666.98584,185.459676 669.050435,193.158166 673.179688,200.506836 C677.30894,207.855505 682.855353,213.576884 689.819092,217.671143 C696.782831,221.765401 704.253866,223.8125 712.232422,223.8125 C720.280965,223.8125 727.909469,221.782898 735.118164,217.723633 C742.326859,213.664368 747.873272,208.170445 751.757568,201.241699 C755.641865,194.312954 757.583984,186.509483 757.583984,177.831055 C757.583984,164.603449 753.227338,153.545617 744.513916,144.657227 C735.800494,135.768836 725.075096,131.324707 712.337402,131.324707 Z M868.287109,120.091797 L883.404297,120.091797 L918.362793,203.026367 L955.000977,120.091797 L957.625488,120.091797 L994.158691,203.026367 L1029.74707,120.091797 L1045.07422,120.091797 L995.523438,234.310547 L992.688965,234.310547 L956.365723,152.530762 L919.727539,234.310547 L916.998047,234.310547 L868.287109,120.091797 Z M1126.46094,117.152344 C1144.02776,117.152344 1158.5849,123.521095 1170.13281,136.258789 C1180.63091,147.876686 1185.87988,161.62899 1185.87988,177.516113 C1185.87988,193.473224 1180.33347,207.41799 1169.24048,219.35083 C1158.14749,231.28367 1143.88778,237.25 1126.46094,237.25 C1108.96411,237.25 1094.66941,231.28367 1083.57642,219.35083 C1072.48342,207.41799 1066.93701,193.473224 1066.93701,177.516113 C1066.93701,161.698977 1072.18598,147.981666 1082.68408,136.36377 C1094.23199,123.556088 1108.82413,117.152344 1126.46094,117.152344 Z M1126.46094,131.534668 C1114.28314,131.534668 1103.82019,136.048783 1095.07178,145.077148 C1086.32336,154.105514 1081.94922,165.023373 1081.94922,177.831055 C1081.94922,186.08956 1083.94383,193.78805 1087.93311,200.926758 C1091.92238,208.065465 1097.31133,213.576885 1104.1001,217.461182 C1110.88887,221.345478 1118.34241,223.287598 1126.46094,223.287598 C1134.57947,223.287598 1142.03301,221.345478 1148.82178,217.461182 C1155.61055,213.576885 1160.99949,208.065465 1164.98877,200.926758 C1168.97805,193.78805 1170.97266,186.08956 1170.97266,177.831055 C1170.97266,165.023373 1166.58102,154.105514 1157.79761,145.077148 C1149.0142,136.048783 1138.56875,131.534668 1126.46094,131.534668 Z M1217.61084,120.091797 L1232.62305,120.091797 L1232.62305,136.783691 C1237.10224,130.204882 1241.82631,125.288346 1246.79541,122.033936 C1251.76451,118.779525 1256.9435,117.152344 1262.33252,117.152344 C1266.39178,117.152344 1270.73093,118.44709 1275.3501,121.036621 L1267.68652,133.424316 C1264.60708,132.094557 1262.01759,131.429688 1259.91797,131.429688 C1255.01886,131.429688 1250.29478,133.441793 1245.74561,137.466064 C1241.19643,141.490336 1237.73211,147.736611 1235.35254,156.205078 C1233.53287,162.7139 1232.62305,175.87132 1232.62305,195.677734 L1232.62305,234.310547 L1217.61084,234.310547 L1217.61084,120.091797 Z M1297.73779,76 L1312.54004,76 L1312.54004,166.073242 L1365.34521,120.091797 L1386.97119,120.091797 L1324.29785,174.57666 L1390.64551,234.310547 L1369.85938,234.310547 L1312.54004,182.975098 L1312.54004,234.310547 L1297.73779,234.310547 L1297.73779,76 Z M1473.18701,132.584473 L1463.73877,142.347656 C1455.90019,134.719037 1448.23669,130.904785 1440.74805,130.904785 C1435.98891,130.904785 1431.91221,132.479476 1428.51782,135.628906 C1425.12344,138.778336 1423.42627,142.452616 1423.42627,146.651855 C1423.42627,150.361184 1424.826,153.895491 1427.62549,157.254883 C1430.42498,160.684262 1436.30383,164.708473 1445.26221,169.327637 C1456.18023,174.99661 1463.59878,180.45554 1467.51807,185.70459 C1471.36737,191.023627 1473.29199,197.007454 1473.29199,203.65625 C1473.29199,213.034552 1470.00264,220.977995 1463.42383,227.486816 C1456.84502,233.995638 1448.62163,237.25 1438.75342,237.25 C1432.17461,237.25 1425.89334,235.815281 1419.90942,232.945801 C1413.92551,230.07632 1408.97398,226.122096 1405.05469,221.083008 L1414.29297,210.584961 C1421.78161,219.053428 1429.72506,223.287598 1438.12354,223.287598 C1444.00247,223.287598 1449.00649,221.397968 1453.13574,217.618652 C1457.26499,213.839337 1459.32959,209.395208 1459.32959,204.286133 C1459.32959,200.086893 1457.96486,196.342627 1455.23535,193.053223 C1452.50585,189.833806 1446.34705,185.774601 1436.75879,180.875488 C1426.47065,175.556451 1419.47202,170.30748 1415.7627,165.128418 C1412.05337,159.949356 1410.19873,154.035515 1410.19873,147.386719 C1410.19873,138.70829 1413.15565,131.499703 1419.06958,125.760742 C1424.98351,120.021781 1432.45454,117.152344 1441.48291,117.152344 C1451.98101,117.152344 1462.54894,122.296335 1473.18701,132.584473 Z" id="asta-works" stroke="#F58664" stroke-width="5" fill="#FC8562"></path>
            <g id="logo-mini">
                <mask id="mask-2" fill="white">
                    <use xlink:href="#path-1"></use>
                </mask>
                <g id="Clip-2"></g>
                <path d="M219,208.085719 C219,266.02668 169.974661,313 109.5,313 C49.0253387,313 0,266.02668 0,208.085719 C0,150.142303 109.5,0 109.5,0 C109.5,0 219,150.142303 219,208.085719" id="Fill-1" fill="#FC8562" mask="url(#mask-2)"></path>
                <g id="Group-4" mask="url(#mask-2)">
                    <g transform="translate(-1.000000, 0.000000)">
                        <mask id="mask-4" fill="white">
                            <use xlink:href="#path-3"></use>
                        </mask>
                        <g id="Clip-5" stroke="none" fill="none"></g>
                        <path d="M0,203.210391 L0,168.866641 L229.756871,168.866641 L229.756871,203.210391 L0,203.210391 Z M0,267.577938 L0,237.554141 L229.756871,237.554141 L229.756871,267.577938 L0,267.577938 Z M110.623594,65.8351453 C113.176448,63.3820203 148.066305,132.886411 148.066305,132.886411 L123.387864,132.886411 L123.387864,168.866395 L98.7094234,168.866395 L98.7094234,132.886411 L74.8836358,132.886411 L110.623594,65.8351453 Z" id="Combined-Shape" stroke="none" fill="#FFFFFF" fill-rule="evenodd" mask="url(#mask-4)"></path>
                    </g>
                </g>
            </g>
        </g>
    </g>
</svg>

<svg width="1474" height="313" viewBox="0 0 1474 313" xmlns="http://www.w3.org/2000/svg" xmlns:xlink="http://www.w3.org/1999/xlink"><title>logo-f</title><defs><path id="a" d="M219 0H0v313h219V0z"/><path id="c" d="M0 313h229.757V.202H0z"/></defs><g fill="none" fill-rule="evenodd"><path d="M437.943 120.092V234.31h-14.487v-19.632c-6.16 7.489-13.07 13.123-20.734 16.902-7.664 3.78-16.045 5.669-25.143 5.669-16.167 0-29.972-5.861-41.415-17.584C324.721 207.943 319 193.683 319 176.886c0-16.447 5.774-30.514 17.322-42.202 11.548-11.688 25.44-17.532 41.677-17.532 9.378 0 17.864 1.995 25.458 5.984 7.593 3.99 14.26 9.973 19.999 17.952v-20.996h14.487zm-58.79 11.233c-8.188 0-15.746 2.012-22.675 6.036-6.929 4.024-12.44 9.676-16.534 16.954-4.095 7.28-6.142 14.978-6.142 23.096 0 8.049 2.065 15.747 6.194 23.096 4.13 7.349 9.676 13.07 16.64 17.164 6.963 4.094 14.434 6.142 22.413 6.142 8.048 0 15.677-2.03 22.886-6.09 7.208-4.059 12.755-9.553 16.639-16.481 3.884-6.929 5.826-14.733 5.826-23.41 0-13.229-4.356-24.286-13.07-33.175-8.713-8.888-19.438-13.332-32.176-13.332zm159.283 1.26l-9.448 9.763c-7.839-7.629-15.502-11.443-22.99-11.443-4.76 0-8.837 1.574-12.231 4.724-3.395 3.15-5.092 6.824-5.092 11.023 0 3.71 1.4 7.243 4.2 10.603 2.799 3.43 8.678 7.453 17.636 12.073 10.918 5.669 18.337 11.128 22.256 16.377 3.85 5.319 5.774 11.302 5.774 17.951 0 9.379-3.29 17.322-9.868 23.83-6.579 6.51-14.802 9.764-24.67 9.764-6.58 0-12.86-1.435-18.845-4.304-5.983-2.87-10.935-6.824-14.854-11.863l9.238-10.498c7.489 8.468 15.432 12.703 23.83 12.703 5.88 0 10.884-1.89 15.013-5.67 4.129-3.779 6.194-8.223 6.194-13.332 0-4.2-1.365-7.943-4.095-11.233-2.73-3.22-8.888-7.278-18.476-12.178-10.288-5.319-17.287-10.568-20.996-15.747-3.71-5.179-5.564-11.092-5.564-17.741 0-8.679 2.957-15.887 8.87-21.626 5.915-5.74 13.386-8.609 22.414-8.609 10.498 0 21.066 5.144 31.704 15.432zm48.843-54.905h14.802v42.412h23.306v12.597H602.08v101.622h-14.8V132.689h-20.051v-12.597h20.05V77.68zm183.847 42.412V234.31H756.64v-19.632c-6.159 7.489-13.07 13.123-20.733 16.902-7.664 3.78-16.045 5.669-25.143 5.669-16.167 0-29.972-5.861-41.415-17.584-11.443-11.723-17.164-25.983-17.164-42.78 0-16.447 5.773-30.514 17.321-42.202 11.548-11.688 25.44-17.532 41.678-17.532 9.378 0 17.864 1.995 25.457 5.984 7.594 3.99 14.26 9.973 20 17.952v-20.996h14.486zm-58.789 11.233c-8.188 0-15.747 2.012-22.675 6.036-6.93 4.024-12.44 9.676-16.535 16.954-4.094 7.28-6.141 14.978-6.141 23.096 0 8.049 2.064 15.747 6.194 23.096 4.129 7.349 9.675 13.07 16.64 17.164 6.963 4.094 14.434 6.142 22.412 6.142 8.049 0 15.677-2.03 22.886-6.09 7.209-4.059 12.755-9.553 16.64-16.481 3.884-6.929 5.826-14.733 5.826-23.41 0-13.229-4.357-24.286-13.07-33.175-8.714-8.888-19.439-13.332-32.177-13.332zm155.95-11.233h15.117l34.959 82.934L955 120.092h2.624l36.534 82.934 35.588-82.934h15.327l-49.55 114.219h-2.835l-36.323-81.78-36.638 81.78h-2.73l-48.71-114.22zm258.174-2.94c17.567 0 32.124 6.37 43.672 19.107 10.498 11.618 15.747 25.37 15.747 41.257 0 15.957-5.547 29.902-16.64 41.835s-25.352 17.899-42.78 17.899c-17.496 0-31.79-5.966-42.884-17.9-11.093-11.932-16.639-25.877-16.639-41.834 0-15.817 5.249-29.534 15.747-41.152 11.548-12.808 26.14-19.212 43.777-19.212zm0 14.383c-12.178 0-22.64 4.514-31.39 13.542-8.748 9.029-13.122 19.946-13.122 32.754 0 8.259 1.995 15.957 5.984 23.096 3.99 7.138 9.378 12.65 16.167 16.534 6.789 3.884 14.242 5.827 22.36 5.827 8.12 0 15.573-1.943 22.362-5.827 6.789-3.884 12.177-9.396 16.167-16.534 3.989-7.139 5.984-14.837 5.984-23.096 0-12.808-4.392-23.725-13.175-32.754-8.784-9.028-19.23-13.542-31.337-13.542zm91.15-11.443h15.012v16.692c4.48-6.58 9.203-11.496 14.172-14.75 4.97-3.254 10.149-4.882 15.538-4.882 4.059 0 8.398 1.295 13.017 3.885l-7.663 12.387c-3.08-1.33-5.67-1.994-7.769-1.994-4.9 0-9.623 2.012-14.172 6.036-4.55 4.024-8.014 10.27-10.393 18.74-1.82 6.508-2.73 19.665-2.73 39.472v38.633h-15.012V120.09zM1297.738 76h14.802v90.073l52.805-45.981h21.626l-62.673 54.485 66.348 59.734h-20.787l-57.319-51.336v51.336h-14.802V76zm175.449 56.584l-9.448 9.764c-7.839-7.629-15.502-11.443-22.991-11.443-4.76 0-8.836 1.574-12.23 4.724-3.395 3.15-5.092 6.824-5.092 11.023 0 3.71 1.4 7.243 4.2 10.603 2.799 3.43 8.678 7.453 17.636 12.073 10.918 5.669 18.337 11.128 22.256 16.377 3.85 5.319 5.774 11.302 5.774 17.951 0 9.379-3.29 17.322-9.868 23.83-6.579 6.51-14.802 9.764-24.67 9.764-6.58 0-12.86-1.435-18.845-4.304-5.983-2.87-10.935-6.824-14.854-11.863l9.238-10.498c7.489 8.468 15.432 12.703 23.83 12.703 5.88 0 10.883-1.89 15.013-5.67 4.129-3.779 6.194-8.223 6.194-13.332 0-4.2-1.365-7.943-4.095-11.233-2.73-3.22-8.888-7.278-18.476-12.178-10.288-5.319-17.287-10.568-20.996-15.747-3.71-5.179-5.564-11.092-5.564-17.741 0-8.679 2.957-15.887 8.87-21.626 5.915-5.74 13.386-8.609 22.414-8.609 10.498 0 21.066 5.144 31.704 15.432z" stroke="#F58664" stroke-width="5" fill="#FC8562"/><mask id="b" fill="#fff"><use xlink:href="#a"/></mask><path d="M219 208.086C219 266.026 169.975 313 109.5 313S0 266.027 0 208.086C0 150.142 109.5 0 109.5 0S219 150.142 219 208.086" fill="#FC8562" mask="url(#b)"/><g mask="url(#b)"><g transform="translate(-1)"><mask id="d" fill="#fff"><use xlink:href="#c"/></mask><path d="M0 203.21v-34.343h229.757v34.343H0zm0 64.368v-30.024h229.757v30.024H0zM110.624 65.835c2.552-2.453 37.442 67.051 37.442 67.051h-24.678v35.98H98.709v-35.98H74.884l35.74-67.05z" fill="#FFF" mask="url(#d)"/></g></g></g></svg>
